COLOR/action 16/16/perspective-parallel.svg

<svg height="16" width="16" xmlns="http://www.w3.org/2000/svg"><path d="m10 .9999996v14.0000004h3v-14.0000004zm-7 0v14.0000004h3v-14.0000004z" fill="#1a7fd4"/><path d="m3 1v.5h3v-.5zm7 0v.5h3v-.5z" fill="#fff" opacity=".3"/><path d="m3 14.5v.5h3v-.5zm7 0v.5h3v-.5z" opacity=".2"/></svg>

<?xml version="1.0" encoding="UTF-8" standalone="no"?>
<svg
   xmlns:dc="http://purl.org/dc/elements/1.1/"
   xmlns:cc="http://creativecommons.org/ns#"
   xmlns:rdf="http://www.w3.org/1999/02/22-rdf-syntax-ns#"
   xmlns:svg="http://www.w3.org/2000/svg"
   xmlns="http://www.w3.org/2000/svg"
   xmlns:sodipodi="http://sodipodi.sourceforge.net/DTD/sodipodi-0.dtd"
   xmlns:inkscape="http://www.inkscape.org/namespaces/inkscape"
   height="16"
   width="16"
   version="1.1"
   id="svg4"
   sodipodi:docname="perspective-parallel.svg"
   inkscape:version="0.92.4 (5da689c313, 2019-01-14)">
  <metadata
     id="metadata10">
    <rdf:RDF>
      <cc:Work
         rdf:about="">
        <dc:format>image/svg+xml</dc:format>
        <dc:type
           rdf:resource="http://purl.org/dc/dcmitype/StillImage" />
      </cc:Work>
    </rdf:RDF>
  </metadata>
  <defs
     id="defs8" />
  <sodipodi:namedview
     pagecolor="#ffffff"
     bordercolor="#666666"
     borderopacity="1"
     objecttolerance="10"
     gridtolerance="10"
     guidetolerance="10"
     inkscape:pageopacity="0"
     inkscape:pageshadow="2"
     inkscape:window-width="1920"
     inkscape:window-height="1016"
     id="namedview6"
     showgrid="false"
     inkscape:zoom="14.75"
     inkscape:cx="8"
     inkscape:cy="8"
     inkscape:window-x="0"
     inkscape:window-y="27"
     inkscape:window-maximized="1"
     inkscape:current-layer="svg4" />
  <path
     d="m10 .9999996v14.0000004h3v-14.0000004zm-7 0v14.0000004h3v-14.0000004z"
     id="path2"
     fill="#1a7fd4" />
  <path
     d="M 3 1 L 3 1.5 L 6 1.5 L 6 1 L 3 1 z M 10 1 L 10 1.5 L 13 1.5 L 13 1 L 10 1 z "
     id="path817"
     style="fill:#ffffff;fill-opacity:1;opacity:0.3" />
  <path
     style="opacity:0.2;fill:#000000;fill-opacity:1"
     id="path824"
     d="M 3,14.5 V 15 h 3 v -0.5 z m 7,0 V 15 h 3 v -0.5 z"
     inkscape:connector-curvature="0" />
</svg>
